X:1
T: The Magic Slipper
C:
R:Reel
Q: 232
K:Em
M:4/4
L:1/8
ge|dB AB GF EF|G2 BG dG Be|dB AB GF ED|Be e^d ef ge|
dB AB GF EF|G2 BG dB Ge|dB AB GF ED|Be e^d ef ge|
|:de ga bg ab|gd Bd gd Bg|de ga bg ab|ga fg ef ge|
de ga ba gf|gf ef g3a|ba gf gf ed|eg fa ef ge:|
dB AB GF EF|G2 BG dG Be|dB AB GF ED|Be e^d ef ge|
dB AB GF EF|G2 BG dB Ge|dB AB GF ED|Be e^d ef ge||
